libs/ui/packages/crypto-icons/src/svg/RIC.svg

<svg width="24" height="24" viewBox="0 0 24 24" fill="none">
<path fill-rule="evenodd" clip-rule="evenodd" d="M6.858 15.393C7.083 15.0518 7.296 14.7322 7.497 14.433H5.199C5.1805 14.433 5.16276 14.4257 5.14968 14.4126C5.1366 14.3995 5.12925 14.3817 5.12925 14.3632V13.8862C5.12925 13.848 5.16075 13.8165 5.199 13.8165H7.9155C9.36825 11.6948 10.0942 10.821 10.0942 10.7318C10.0942 10.5945 10.0642 10.5262 9.56925 10.5262C8.59125 10.5262 6.9825 9.828 6.9825 7.9215C6.9825 6.88425 8.66025 5.625 9.63975 5.625C10.0942 5.625 10.164 5.81775 9.95475 5.8305C9.39525 5.865 8.17125 6.9825 8.17125 8.058C8.17125 8.778 8.81025 10.0118 10.2338 10.0118C11.9153 10.0118 13.3515 7.33875 16.8428 7.33875C18.9405 7.33875 19.5 8.97975 19.5 9.42975C19.5 9.87975 18.8452 10.1153 17.9618 10.1153C17.0782 10.1153 17.0452 8.538 15.2692 8.538C12.4807 8.538 10.1063 11.5575 8.9655 13.8165H10.9335C10.9725 13.8165 11.0032 13.848 11.0032 13.8862V14.3632C11.0033 14.3725 11.0016 14.3816 10.9982 14.3902C10.9947 14.3987 10.9896 14.4065 10.9831 14.4131C10.9766 14.4196 10.9689 14.4248 10.9604 14.4284C10.9519 14.4319 10.9427 14.4338 10.9335 14.4338H8.676C8.52 14.7938 8.40375 15.12 8.331 15.3937H10.3035C10.3425 15.3937 10.374 15.4238 10.374 15.4628V15.9405C10.374 15.959 10.3667 15.9767 10.3536 15.9898C10.3405 16.0029 10.3227 16.0103 10.3043 16.0103H8.2425C8.27925 16.8848 9.01275 17.673 10.4445 18.375H4.9545C5.44655 17.5817 5.94657 16.7934 6.4545 16.0103H4.5705C4.56128 16.0103 4.55213 16.0086 4.54358 16.0052C4.53503 16.0017 4.52725 15.9966 4.52069 15.9901C4.51414 15.9836 4.50893 15.9759 4.50538 15.9674C4.50183 15.9589 4.5 15.9497 4.5 15.9405V15.4628C4.5 15.4245 4.5315 15.393 4.56975 15.393H6.858Z" fill="#60E4DD"/>
</svg>

<svg width="24" height="24" viewBox="0 0 24 24" fill="none"><path fill="#60e4dd" fill-rule="evenodd" d="M6.858 15.393q.337-.51.639-.96H5.199a.07.07 0 0 1-.07-.07v-.477a.07.07 0 0 1 .07-.07h2.717c1.452-2.121 2.178-2.995 2.178-3.084 0-.137-.03-.206-.525-.206-.978 0-2.587-.698-2.587-2.604 0-1.038 1.678-2.297 2.658-2.297.454 0 .524.193.315.205-.56.035-1.784 1.152-1.784 2.228 0 .72.64 1.954 2.063 1.954 1.681 0 3.117-2.673 6.609-2.673 2.098 0 2.657 1.64 2.657 2.09s-.655.686-1.538.686c-.884 0-.917-1.577-2.693-1.577-2.788 0-5.163 3.02-6.303 5.278h1.968a.07.07 0 0 1 .07.07v.477a.07.07 0 0 1-.02.05.07.07 0 0 1-.05.02H8.676a7 7 0 0 0-.345.96h1.973c.038 0 .07.03.07.07v.478a.07.07 0 0 1-.07.07H8.242q.055 1.311 2.202 2.364h-5.49q.74-1.19 1.5-2.365H4.572a.07.07 0 0 1-.07-.07v-.477a.07.07 0 0 1 .069-.07z" clip-rule="evenodd"/></svg>
